X: 13
T:Savage Dance,The. Car.13
M:C|
Q:160
S:CarlisleMS,Anon.c1812.AGG's transcription
R:Reel
O:England
A:Carlisle
Z:vmp.Chris Partington
K:D
D3A FADA|E2A,2 D/C/D/E/ DA,|D3A FADA|E2C2 "Fin"D4:|!
F3G AFDd|B2GB AFED|F3G AFDd|B2G2 "DC"A4||!
D3A FADA|E2A,2 D/C/D/E/ DA,|D3A FAFD|E2A,2 D4|]
